Icons/com_painless_pc.svg

<svg viewBox="0 0 48 48" xmlns:xlink="http://www.w3.org/1999/xlink">
 <defs>
  <linearGradient id="0">
   <stop stop-opacity="0"/>
   <stop offset="1"/>
  </linearGradient>
  <linearGradient xlink:href="#0" id="1" gradientUnits="userSpaceOnUse" gradientTransform="translate(4e-7,-48)" y1="47" x2="0" y2="1"/>
  <clipPath id="2">
   <g transform="translate(0,-1004.3622)">
    <rect rx="4" y="1005.36" x="1" height="46" width="46" fill="#1890d0"/>
   </g>
  </clipPath>
  <clipPath id="3">
   <g transform="translate(0,-1004.3622)">
    <rect rx="4" y="1005.36" x="1" height="46" width="46" fill="#1890d0"/>
   </g>
  </clipPath>
  <path id="4" d="M 23.050781 34.050781 L 24.949219 34.050781 L 24.949219 35.949219 L 23.050781 35.949219 Z M 23.050781 34.050781 " stroke-width="2.105" stroke-miterlimit="5.8"/>
 </defs>
 <g>
  <g transform="translate(0,-1004.3622)">
   <path d="m 5,1006.3622 c -2.216,0 -4,1.784 -4,4 l 0,37.25 c 0,2.216 1.784,4 4,4 l 38,0 c 2.216,0 4,-1.784 4,-4 l 0,-37.25 c 0,-2.216 -1.784,-4 -4,-4 l -38,0 z m -4,41.5 0,0.5 c 0,2.216 1.784,4 4,4 l 38,0 c 2.216,0 4,-1.784 4,-4 l 0,-0.5 c 0,2.216 -1.784,4 -4,4 l -38,0 c -2.216,0 -4,-1.784 -4,-4 z" opacity="0.02"/>
   <path d="m 1,1047.6122 0,0.25 c 0,2.216 1.784,4 4,4 l 38,0 c 2.216,0 4,-1.784 4,-4 l 0,-0.25 c 0,2.216 -1.784,4 -4,4 l -38,0 c -2.216,0 -4,-1.784 -4,-4 z" opacity="0.05"/>
   <rect width="46" height="46" x="1" y="1005.61" rx="4" opacity="0.1"/>
  </g>
 </g>
 <g>
  <g transform="translate(0,-1004.3622)">
   <rect rx="4" y="1005.36" x="1" height="46" width="46" fill="#636363"/>
  </g>
 </g>
 <g>
  <rect transform="scale(1,-1)" width="46" height="46" x="1" y="-46.998" rx="4" opacity="0.1" fill="url(#1)"/>
 </g>
 <g>
  <g clip-path="url(#2)">
   <g opacity="0.1">
    <g>
     <path d="M 33.480469 24 C 33.480469 29.238281 29.238281 33.484375 24 33.484375 C 18.761719 33.484375 14.515625 29.238281 14.515625 24 C 14.515625 18.761719 18.761719 14.519531 24 14.519531 C 29.238281 14.519531 33.480469 18.761719 33.480469 24 Z M 33.480469 24 " stroke="#3dc8ff" stroke-linejoin="round" stroke-width="3.03" stroke-miterlimit="5.8"/>
     <use stroke="#ffffff" xlink:href="#4"/>
     <path d="M 23.054688 12.050781 L 24.949219 12.050781 L 24.949219 13.945312 L 23.054688 13.945312 Z M 23.054688 12.050781 " stroke="#ffffff" stroke-width="2.105" stroke-miterlimit="5.8"/>
     <path d="M 13.949219 23.054688 L 13.949219 24.949219 L 12.050781 24.949219 L 12.050781 23.054688 Z M 13.949219 23.054688 " stroke="#3dc8ff" stroke-width="2.105" stroke-miterlimit="5.8"/>
     <path d="M 35.949219 23.054688 L 35.949219 24.949219 L 34.054688 24.949219 L 34.054688 23.054688 Z M 35.949219 23.054688 " stroke="#3dc8ff" stroke-width="2.105" stroke-miterlimit="5.8"/>
     <use stroke="#3dc8ff" xlink:href="#4"/>
     <path d="M 23.050781 12.050781 L 24.949219 12.050781 L 24.949219 13.945312 L 23.050781 13.945312 Z M 23.050781 12.050781 " stroke="#3dc8ff" stroke-width="2.105" stroke-miterlimit="5.8"/>
     <path d="M 30.4375 31.777344 L 31.777344 30.4375 L 33.117188 31.777344 L 31.777344 33.117188 Z M 30.4375 31.777344 " stroke="#3dc8ff" stroke-width="2.105" stroke-miterlimit="5.8"/>
     <path d="M 14.878906 16.222656 L 16.21875 14.878906 L 17.5625 16.222656 L 16.21875 17.5625 Z M 14.878906 16.222656 " stroke="#3dc8ff" stroke-width="2.105" stroke-miterlimit="5.8"/>
     <path d="M 16.222656 30.4375 L 17.5625 31.777344 L 16.222656 33.117188 L 14.882812 31.777344 Z M 16.222656 30.4375 " stroke="#3dc8ff" stroke-width="2.105" stroke-miterlimit="5.8"/>
     <path d="M 31.777344 14.882812 L 33.121094 16.222656 L 31.777344 17.5625 L 30.4375 16.222656 Z M 31.777344 14.882812 " stroke="#3dc8ff" stroke-width="2.105" stroke-miterlimit="5.8"/>
     <path d="M 27 24 C 27 25.074219 26.429688 26.066406 25.5 26.601562 C 24.570312 27.140625 23.425781 27.140625 22.5 26.601562 C 21.570312 26.066406 20.996094 25.074219 21 24 C 20.996094 22.929688 21.570312 21.9375 22.5 21.398438 C 23.425781 20.863281 24.570312 20.863281 25.5 21.398438 C 26.429688 21.9375 27 22.929688 27 24 Z M 27 24 "/>
    </g>
   </g>
  </g>
 </g>
 <g>
  <g clip-path="url(#3)">
   <g transform="translate(0,-1)">
    <g>
     <path d="M 33.480469 24 C 33.480469 29.238281 29.238281 33.484375 24 33.484375 C 18.761719 33.484375 14.515625 29.238281 14.515625 24 C 14.515625 18.761719 18.761719 14.519531 24 14.519531 C 29.238281 14.519531 33.480469 18.761719 33.480469 24 Z M 33.480469 24 " fill="none" stroke="#3dc8ff" stroke-linejoin="round" stroke-width="3.03" stroke-miterlimit="5.8"/>
     <use fill="none" stroke="#ffffff" xlink:href="#4"/>
     <path d="M 23.054688 12.050781 L 24.949219 12.050781 L 24.949219 13.945312 L 23.054688 13.945312 Z M 23.054688 12.050781 " fill="none" stroke="#ffffff" stroke-width="2.105" stroke-miterlimit="5.8"/>
     <path d="M 13.949219 23.054688 L 13.949219 24.949219 L 12.050781 24.949219 L 12.050781 23.054688 Z M 13.949219 23.054688 " fill="none" stroke="#3dc8ff" stroke-width="2.105" stroke-miterlimit="5.8"/>
     <path d="M 35.949219 23.054688 L 35.949219 24.949219 L 34.054688 24.949219 L 34.054688 23.054688 Z M 35.949219 23.054688 " fill="none" stroke="#3dc8ff" stroke-width="2.105" stroke-miterlimit="5.8"/>
     <use fill="none" stroke="#3dc8ff" xlink:href="#4"/>
     <path d="M 23.050781 12.050781 L 24.949219 12.050781 L 24.949219 13.945312 L 23.050781 13.945312 Z M 23.050781 12.050781 " fill="none" stroke="#3dc8ff" stroke-width="2.105" stroke-miterlimit="5.8"/>
     <path d="M 30.4375 31.777344 L 31.777344 30.4375 L 33.117188 31.777344 L 31.777344 33.117188 Z M 30.4375 31.777344 " fill="none" stroke="#3dc8ff" stroke-width="2.105" stroke-miterlimit="5.8"/>
     <path d="M 14.878906 16.222656 L 16.21875 14.878906 L 17.5625 16.222656 L 16.21875 17.5625 Z M 14.878906 16.222656 " fill="none" stroke="#3dc8ff" stroke-width="2.105" stroke-miterlimit="5.8"/>
     <path d="M 16.222656 30.4375 L 17.5625 31.777344 L 16.222656 33.117188 L 14.882812 31.777344 Z M 16.222656 30.4375 " fill="none" stroke="#3dc8ff" stroke-width="2.105" stroke-miterlimit="5.8"/>
     <path d="M 31.777344 14.882812 L 33.121094 16.222656 L 31.777344 17.5625 L 30.4375 16.222656 Z M 31.777344 14.882812 " fill="none" stroke="#3dc8ff" stroke-width="2.105" stroke-miterlimit="5.8"/>
     <path d="M 27 24 C 27 25.074219 26.429688 26.066406 25.5 26.601562 C 24.570312 27.140625 23.425781 27.140625 22.5 26.601562 C 21.570312 26.066406 20.996094 25.074219 21 24 C 20.996094 22.929688 21.570312 21.9375 22.5 21.398438 C 23.425781 20.863281 24.570312 20.863281 25.5 21.398438 C 26.429688 21.9375 27 22.929688 27 24 Z M 27 24 " fill="#3dc8ff"/>
    </g>
   </g>
  </g>
 </g>
 <g>
  <g transform="translate(0,-1004.3622)">
   <path d="m 1,1043.3622 0,4 c 0,2.216 1.784,4 4,4 l 38,0 c 2.216,0 4,-1.784 4,-4 l 0,-4 c 0,2.216 -1.784,4 -4,4 l -38,0 c -2.216,0 -4,-1.784 -4,-4 z" opacity="0.1"/>
  </g>
 </g>
</svg>

<svg viewBox="0 0 48 48" xmlns:xlink="http://www.w3.org/1999/xlink"><defs><linearGradient id="linearGradient3764" x1="1" x2="47" gradientUnits="userSpaceOnUse" gradientTransform="translate(-48.000001,0.00221467)"><stop stop-color="#595959" stop-opacity="1"/><stop offset="1" stop-color="#636363" stop-opacity="1"/></linearGradient><clipPath id="clipPath-276908705"><g transform="translate(0,-1004.3622)"><rect rx="4" y="1005.36" x="1" height="46" width="46" fill="#1890d0"/></g></clipPath><clipPath id="clipPath-290386381"><g transform="translate(0,-1004.3622)"><rect rx="4" y="1005.36" x="1" height="46" width="46" fill="#1890d0"/></g></clipPath><path id="SVGCleanerId_0" d="m 23.05 34.05 l 1.898 0 l 0 1.898 l -1.898 0 m 0 -1.898" stroke-width="2.105" stroke-miterlimit="5.8"/></defs><g><path d="m 1 43 l 0 0.25 c 0 2.216 1.784 4 4 4 l 38 0 c 2.216 0 4 -1.784 4 -4 l 0 -0.25 c 0 2.216 -1.784 4 -4 4 l -38 0 c -2.216 0 -4 -1.784 -4 -4 z m 0 0.5 l 0 0.5 c 0 2.216 1.784 4 4 4 l 38 0 c 2.216 0 4 -1.784 4 -4 l 0 -0.5 c 0 2.216 -1.784 4 -4 4 l -38 0 c -2.216 0 -4 -1.784 -4 -4 z" opacity="0.02"/><path d="m 1 43.25 l 0 0.25 c 0 2.216 1.784 4 4 4 l 38 0 c 2.216 0 4 -1.784 4 -4 l 0 -0.25 c 0 2.216 -1.784 4 -4 4 l -38 0 c -2.216 0 -4 -1.784 -4 -4 z" opacity="0.05"/><path d="m 1 43 l 0 0.25 c 0 2.216 1.784 4 4 4 l 38 0 c 2.216 0 4 -1.784 4 -4 l 0 -0.25 c 0 2.216 -1.784 4 -4 4 l -38 0 c -2.216 0 -4 -1.784 -4 -4 z" opacity="0.1"/></g><g><rect width="46" height="46" x="-47" y="1" rx="4" transform="matrix(0,-1,1,0,0,0)" fill="url(#linearGradient3764)" fill-opacity="1"/></g><g><g clip-path="url(#clipPath-276908705)"><g opacity="0.1"><!-- color: #636363 --><g><path d="m 33.48 24 c 0 5.238 -4.242 9.484 -9.48 9.484 c -5.238 0 -9.484 -4.246 -9.484 -9.484 c 0 -5.238 4.246 -9.48 9.484 -9.48 c 5.238 0 9.48 4.242 9.48 9.48 m 0 0" stroke="#3dc8ff" stroke-linejoin="round" stroke-width="3.03" stroke-miterlimit="5.8" fill="#000"/><use stroke="#fff" fill="#000" xlink:href="#SVGCleanerId_0"/><path d="m 23.05 12.05 l 1.895 0 l 0 1.895 l -1.895 0 m 0 -1.895" stroke="#fff" stroke-width="2.105" stroke-miterlimit="5.8" fill="#000"/><path d="m 13.949 23.05 l 0 1.895 l -1.898 0 l 0 -1.895 m 1.898 0" stroke="#3dc8ff" stroke-width="2.105" stroke-miterlimit="5.8" fill="#000"/><path d="m 35.949 23.05 l 0 1.895 l -1.895 0 l 0 -1.895 m 1.895 0" stroke="#3dc8ff" stroke-width="2.105" stroke-miterlimit="5.8" fill="#000"/><use stroke="#3dc8ff" fill="#000" xlink:href="#SVGCleanerId_0"/><path d="m 23.05 12.05 l 1.898 0 l 0 1.895 l -1.898 0 m 0 -1.895" stroke="#3dc8ff" stroke-width="2.105" stroke-miterlimit="5.8" fill="#000"/><path d="m 30.438 31.777 l 1.34 -1.34 l 1.34 1.34 l -1.34 1.34 m -1.34 -1.34" stroke="#3dc8ff" stroke-width="2.105" stroke-miterlimit="5.8" fill="#000"/><path d="m 14.879 16.223 l 1.34 -1.344 l 1.344 1.344 l -1.344 1.34 m -1.34 -1.34" stroke="#3dc8ff" stroke-width="2.105" stroke-miterlimit="5.8" fill="#000"/><path d="m 16.223 30.438 l 1.34 1.34 l -1.34 1.34 l -1.34 -1.34 m 1.34 -1.34" stroke="#3dc8ff" stroke-width="2.105" stroke-miterlimit="5.8" fill="#000"/><path d="m 31.777 14.883 l 1.344 1.34 l -1.344 1.34 l -1.34 -1.34 m 1.34 -1.34" stroke="#3dc8ff" stroke-width="2.105" stroke-miterlimit="5.8" fill="#000"/><path d="m 27 24 c 0 1.074 -0.57 2.066 -1.5 2.602 c -0.93 0.539 -2.074 0.539 -3 0 c -0.93 -0.535 -1.504 -1.527 -1.5 -2.602 c -0.004 -1.07 0.57 -2.063 1.5 -2.602 c 0.926 -0.535 2.07 -0.535 3 0 c 0.93 0.539 1.5 1.531 1.5 2.602 m 0 0" fill="#000"/></g></g></g></g><g><g clip-path="url(#clipPath-290386381)"><g transform="translate(0,-1)"><!-- color: #636363 --><g><path d="m 33.48 24 c 0 5.238 -4.242 9.484 -9.48 9.484 c -5.238 0 -9.484 -4.246 -9.484 -9.484 c 0 -5.238 4.246 -9.48 9.484 -9.48 c 5.238 0 9.48 4.242 9.48 9.48 m 0 0" fill="none" stroke="#3dc8ff" stroke-linejoin="round" stroke-width="3.03" stroke-miterlimit="5.8"/><use fill="none" stroke="#fff" xlink:href="#SVGCleanerId_0"/><path d="m 23.05 12.05 l 1.895 0 l 0 1.895 l -1.895 0 m 0 -1.895" fill="none" stroke="#fff" stroke-width="2.105" stroke-miterlimit="5.8"/><path d="m 13.949 23.05 l 0 1.895 l -1.898 0 l 0 -1.895 m 1.898 0" fill="none" stroke="#3dc8ff" stroke-width="2.105" stroke-miterlimit="5.8"/><path d="m 35.949 23.05 l 0 1.895 l -1.895 0 l 0 -1.895 m 1.895 0" fill="none" stroke="#3dc8ff" stroke-width="2.105" stroke-miterlimit="5.8"/><use fill="none" stroke="#3dc8ff" xlink:href="#SVGCleanerId_0"/><path d="m 23.05 12.05 l 1.898 0 l 0 1.895 l -1.898 0 m 0 -1.895" fill="none" stroke="#3dc8ff" stroke-width="2.105" stroke-miterlimit="5.8"/><path d="m 30.438 31.777 l 1.34 -1.34 l 1.34 1.34 l -1.34 1.34 m -1.34 -1.34" fill="none" stroke="#3dc8ff" stroke-width="2.105" stroke-miterlimit="5.8"/><path d="m 14.879 16.223 l 1.34 -1.344 l 1.344 1.344 l -1.344 1.34 m -1.34 -1.34" fill="none" stroke="#3dc8ff" stroke-width="2.105" stroke-miterlimit="5.8"/><path d="m 16.223 30.438 l 1.34 1.34 l -1.34 1.34 l -1.34 -1.34 m 1.34 -1.34" fill="none" stroke="#3dc8ff" stroke-width="2.105" stroke-miterlimit="5.8"/><path d="m 31.777 14.883 l 1.344 1.34 l -1.344 1.34 l -1.34 -1.34 m 1.34 -1.34" fill="none" stroke="#3dc8ff" stroke-width="2.105" stroke-miterlimit="5.8"/><path d="m 27 24 c 0 1.074 -0.57 2.066 -1.5 2.602 c -0.93 0.539 -2.074 0.539 -3 0 c -0.93 -0.535 -1.504 -1.527 -1.5 -2.602 c -0.004 -1.07 0.57 -2.063 1.5 -2.602 c 0.926 -0.535 2.07 -0.535 3 0 c 0.93 0.539 1.5 1.531 1.5 2.602 m 0 0" fill="#3dc8ff"/></g></g></g></g><g><g transform="translate(0,-1004.3622)"><path d="m 1 1043.36 0 4 c 0 2.216 1.784 4 4 4 l 38 0 c 2.216 0 4 -1.784 4 -4 l 0 -4 c 0 2.216 -1.784 4 -4 4 l -38 0 c -2.216 0 -4 -1.784 -4 -4 z" opacity="0.1"/></g></g></svg>
